src/img/visitengland.svg

<?xml version="1.0" encoding="UTF-8" standalone="no"?>
<svg width="74px" height="74px" viewBox="0 0 74 74" version="1.1" xmlns="http://www.w3.org/2000/svg" xmlns:xlink="http://www.w3.org/1999/xlink">
    <!-- Generator: Sketch 3.8.3 (29802) - http://www.bohemiancoding.com/sketch -->
    <title>Shape</title>
    <desc>Created with Sketch.</desc>
    <defs>
        <path d="M190.840385,44.0798822 C190.912771,44.2354611 191.033902,44.2339976 191.141524,44.2550492 C192.609729,44.5405399 193.38965,45.5600208 193.9326,46.8467553 C194.060711,47.1502581 193.994292,47.3322922 193.721409,47.4934998 C192.504134,48.2122925 191.25635,48.5653283 189.88586,47.9080017 C189.608587,47.7749378 189.332553,47.5809708 188.929871,47.6477279 C189.625248,48.5178216 190.161557,49.4445406 190.382091,50.5125415 C190.866728,52.8591714 190.333909,55.0547255 189.303734,57.1530146 C188.001126,59.8060742 186.068885,61.963803 183.865113,63.891991 C180.864759,66.5170194 177.572835,68.6784632 173.78907,70.0052744 C171.275266,70.8867382 168.707538,71.2694939 166.058419,70.6148691 C164.354368,70.1937253 162.987705,69.291998 161.903494,67.7547837 C161.903494,68.2107132 161.889084,68.5376316 161.90597,68.8629739 C161.977793,70.239656 161.153855,71.1177425 160.218018,71.9407798 C159.971703,72.1575996 159.803628,71.9899752 159.636342,71.8458789 C158.612358,70.9638522 157.886023,69.9415569 158.06513,68.4920387 C158.090009,68.2906416 158.068507,68.0833907 158.068507,67.7963239 C157.80722,68.1019656 157.592539,68.3682059 157.362323,68.6199241 C155.822294,70.3022478 153.81384,70.8448603 151.635172,70.9270402 C149.346406,71.0134979 147.16695,70.4811298 145.082508,69.5864947 C139.937371,67.3781071 135.567089,64.1385307 132.183979,59.6476809 C130.685829,57.6589275 129.667023,55.4496393 129.435569,52.9219884 C129.271209,51.1275398 129.672427,49.5033048 130.734124,48.0439925 C130.815966,47.9315299 130.969068,47.8452973 130.910641,47.630729 C130.457189,47.6610117 130.07781,47.9173455 129.667248,48.0654944 C128.344377,48.543151 127.213785,48.0688717 126.111786,47.397248 C125.85579,47.2411062 125.95722,47.0479272 126.033096,46.8620656 C126.551617,45.5919922 127.311387,44.5725112 128.753475,44.2684456 C128.87697,44.2424407 129.021292,44.2534731 129.103584,44.1224356 C125.374756,42.3167294 124.147912,38.9750473 124.018338,35.2195387 C123.779228,28.2823174 125.884384,21.9990454 129.9882,16.4123887 C131.385709,14.5099805 133.191415,13.0577604 135.445733,12.2281938 C137.117925,11.6128578 138.779873,11.6469681 140.492592,12.229207 C140.314836,12.0179033 140.136629,11.8069374 139.959323,11.5951835 C139.778753,11.379602 139.598407,11.1637953 139.418962,10.9473132 C138.504064,9.84430144 138.593899,8.59944492 138.895375,7.31867691 C138.9708,6.99817533 139.192011,7.0369012 139.416035,7.05299945 C140.908445,7.15938301 142.138103,7.70424696 142.852731,9.11177464 C142.935023,9.27377035 143.040506,9.42394566 143.208919,9.70054292 C143.275676,9.17718083 143.302694,8.78091614 143.37947,8.39455806 C143.828983,6.13359782 145.262628,4.56362413 147.056514,3.27565131 C149.185874,1.74688014 151.620312,0.948271696 154.171266,0.515982942 C158.675062,-0.24727689 163.17064,-0.204723466 167.617698,0.919565021 C170.175969,1.56630952 172.528115,2.6398266 174.422643,4.55270434 C175.716583,5.85913949 176.598609,7.36044231 176.690133,9.2467523 C176.695312,9.35369874 176.73111,9.4591817 176.769836,9.64965893 C177.001066,9.29358358 177.200099,9.00584138 177.379881,8.70672908 C178.135936,7.44858869 179.371111,7.15656863 180.699724,7.04241738 C180.979473,7.01832629 181.043641,7.19473162 181.094412,7.40884964 C181.420768,8.78485627 181.392286,10.0874639 180.352992,11.1990314 C180.047351,11.5259497 179.767376,11.8769592 179.412539,12.2905605 C180.12863,12.131942 180.728993,11.8892299 181.373937,11.8228105 C183.470199,11.6066661 185.277256,12.3467355 186.949336,13.5031079 C189.045148,14.952401 190.591706,16.9040046 191.805942,19.1074389 C194.52756,24.0469008 196.130969,29.2977457 195.991601,34.9941632 C195.959067,36.3279541 195.735943,37.6442959 195.292396,38.907277 C194.484782,41.2076386 193.230131,43.1401044 190.840385,44.0798822 L190.840385,44.0798822 Z M142.125157,28.247982 C142.11041,28.2721856 142.09555,28.2963893 142.08069,28.320593 C142.095437,28.3281355 142.110297,28.3357906 142.125157,28.3433332 C142.121105,28.3130504 142.116939,28.2829929 142.112887,28.2527101 C140.791817,25.9287078 140.923417,23.6425307 142.288279,21.3864112 C142.895397,20.3830285 143.672729,19.5249803 144.53134,18.7344773 C144.688044,18.5902685 144.902725,18.487037 144.695587,18.1927654 C143.532798,16.540049 142.118515,15.2108736 140.109048,14.6859355 C137.795628,14.0816318 135.193452,15.0331174 134.719398,18.0365111 C134.520253,19.2978036 134.443927,20.5688901 134.330338,21.8369371 C134.071077,24.7312454 133.42028,27.5210839 132.227321,30.1801101 C131.342142,32.1533281 130.114284,33.9296521 129.049098,35.7994136 C128.650244,36.4995187 128.282686,37.2228144 128.233378,38.0504672 C128.130147,39.7867145 129.126662,41.3187503 130.875968,42.1126306 C132.74179,42.9594212 134.634404,42.8045178 136.529832,42.2301591 C137.367504,41.9761895 137.356922,41.9651571 137.18896,41.0907855 C136.896602,39.5683186 136.796185,38.0393223 137.170836,36.5175308 C137.705793,34.3451672 139.055795,32.870995 141.135396,32.0398523 C140.937264,31.8824722 140.724609,31.8711021 140.524225,31.8386804 C138.954702,31.584936 138.02393,30.6069952 137.452836,29.1886603 C137.319097,28.8564509 137.385967,28.6803833 137.679,28.5096067 C138.882204,27.807813 140.111863,27.4559029 141.466142,28.0969061 C141.660447,28.1887674 141.865109,28.3912902 142.125157,28.247982 L142.125157,28.247982 Z M177.877914,28.2592395 C178.12344,28.3688877 178.309527,28.188092 178.494376,28.1009588 C179.868356,27.4535388 181.117603,27.8030848 182.325197,28.5430416 C182.498338,28.6490874 182.689378,28.7347571 182.573425,29.0176586 C182.067625,30.2528337 181.417391,31.3392969 179.990162,31.6780356 C179.790229,31.7254298 179.596149,31.7978157 179.397004,31.8492625 C179.216771,31.8958686 179.011208,31.8740291 178.860695,32.056626 C181.174453,32.9925762 182.522541,34.6923491 182.909125,37.1265626 C183.143731,38.6049001 183.012356,40.0812112 182.683299,41.5363582 C182.623184,41.8022608 182.632527,41.940278 182.915767,42.0453106 C184.68027,42.6993725 186.475507,42.9503026 188.311271,42.4120806 C190.666569,41.7214318 192.960401,39.3197526 191.028498,35.990904 C190.614897,35.278303 190.197355,34.5671655 189.755385,33.8719011 C187.970618,31.0645008 186.658892,28.0672988 186.036013,24.7834803 C185.640424,22.6973493 185.57513,20.5756446 185.321836,18.474316 C184.9688,15.5454471 182.808032,13.9848172 179.961568,14.6629702 C177.897164,15.1548112 176.448997,16.5048129 175.27011,18.1986193 C175.092804,18.4532644 175.236562,18.5628001 175.397995,18.7025059 C175.909649,19.1452642 176.372333,19.6363172 176.800682,20.1585535 C177.99623,21.6160646 178.802494,23.2274659 178.772774,25.1702887 C178.755775,26.2838825 178.348141,27.2821994 177.891761,28.2685832 C177.86857,28.2905354 177.84538,28.3124876 177.822302,28.3344397 C177.840314,28.3373667 177.862041,28.3481739 177.875888,28.3418697 C177.926096,28.3191295 177.925533,28.2889594 177.877914,28.2592395 L177.877914,28.2592395 Z M169.836555,53.080832 C169.806498,53.1840634 169.786121,53.2290935 169.78083,53.2758122 C169.474738,55.9904505 167.955424,57.7524775 165.473366,58.7539464 C164.423264,59.1776795 163.321378,59.3922478 162.202606,59.5284638 C161.984998,59.554919 161.808255,59.5716927 161.793508,59.8652888 C161.678681,62.1467377 162.052656,64.2936593 163.653362,66.0391377 C165.131137,67.6504265 167.662615,68.4368768 169.779592,66.2167814 C170.374214,65.5931148 170.956115,64.9528996 171.494788,64.2810509 C174.344066,60.7270519 177.846956,58.0513646 182.070552,56.3260372 C183.196417,55.8661675 184.338154,55.4369183 185.398725,54.8323895 C187.448157,53.6644218 188.141507,51.6677881 187.178989,49.5094965 C186.138794,47.1768258 184.130903,46.0540008 181.79463,45.3851916 C181.555746,45.3168584 181.425721,45.394873 181.322152,45.6319564 C181.037337,46.2845548 180.700174,46.9123867 180.30436,47.5057705 C179.221049,49.1295552 177.862153,50.3903974 175.892087,50.8432874 C174.89591,51.0723779 173.901533,51.0033693 172.800773,50.7576177 C173.0105,51.0087729 173.131519,51.1726824 173.271337,51.3181296 C174.299486,52.3874814 174.423431,53.6549655 174.123193,55.0336739 C174.041014,55.4113637 173.898944,55.5706576 173.488945,55.5327198 C172.136241,55.4076487 170.965797,54.9836905 170.251282,53.7243118 C170.134317,53.5179615 169.994498,53.3244447 169.836555,53.080832 L169.836555,53.080832 Z M147.096365,50.8265137 C147.042217,50.8078262 147.023304,50.7943172 147.006868,50.7967938 C146.915007,50.810528 146.823371,50.8267388 146.732297,50.8447509 C144.707069,51.2457437 142.905078,50.7796824 141.334204,49.4412759 C140.289731,48.5514815 139.536828,47.4396889 138.927121,46.222751 C138.446087,45.2625972 138.436744,45.2364797 137.405104,45.6160833 C135.335072,46.3778796 133.57023,47.5201802 132.716122,49.6807233 C131.891171,51.7675297 132.557054,53.658793 134.48209,54.7889354 C135.292181,55.2644531 136.160586,55.6171512 137.030004,55.9636576 C140.548654,57.3655565 143.757723,59.244324 146.417875,61.9866558 C147.646746,63.2534645 148.716097,64.6587406 149.91401,65.9516668 C151.90479,68.1000518 154.368385,68.1385525 156.350835,65.9803734 C157.93882,64.2515562 158.288366,62.1117268 158.171401,59.8520049 C158.155865,59.5514291 157.954131,59.5517669 157.748568,59.5259871 C156.668072,59.3910095 155.604461,59.1854472 154.584642,58.7876064 C152.470705,57.9633308 150.955556,56.5744906 150.372078,54.3135304 C150.273237,53.9303244 150.219539,53.5355232 150.1422,53.1313783 C150.095932,53.1645879 150.077244,53.1716802 150.068351,53.1853018 C149.945081,53.3729646 149.815732,53.5572502 149.702031,53.7505418 C148.958584,55.0145361 147.771479,55.4504273 146.39277,55.5242766 C146.195764,55.5348587 145.98052,55.577975 145.910498,55.2787501 C145.616002,54.0199343 145.511532,52.7924143 146.398174,51.6964948 C146.629404,51.4104412 146.858607,51.122699 147.096365,50.8265137 L147.096365,50.8265137 Z M161.791256,16.8450152 C161.832459,16.8623518 161.873549,16.8799135 161.914864,16.8972501 C161.956179,16.8361217 161.990965,16.7691395 162.03971,16.7148783 C163.571633,15.012291 165.470214,14.3226553 167.742769,14.623794 C169.237205,14.8218138 170.580114,15.4138467 171.877543,16.1384933 C172.067683,16.2447642 172.230242,16.4125013 172.437605,16.1332022 C173.7768,14.3294098 174.644191,12.3698134 174.259297,10.0694518 C173.915492,8.01427905 172.313772,6.01089085 169.340211,6.61643284 C168.516048,6.78428245 167.69211,6.96136324 166.87943,7.17660701 C163.490579,8.07371875 160.064803,8.37992329 156.580263,7.89179724 C154.74146,7.63411261 152.961195,7.11446551 151.15594,6.70671814 C148.486669,6.10376539 146.577844,7.04962219 145.868733,9.44004391 C145.10885,12.0015799 146.074971,14.1703411 147.579763,16.1829605 C147.767764,16.4344534 147.90837,16.2367714 148.048076,16.1565053 C148.747393,15.7551747 149.4681,15.3974107 150.226294,15.1249788 C152.080632,14.4585336 153.9415,14.2634408 155.804732,15.1024637 C156.723346,15.5161776 157.457224,16.1717029 158.12851,16.9255064 C158.155753,16.8688811 158.169937,16.8536835 158.168811,16.8397242 C158.150912,16.6161498 158.143032,16.3909994 158.109709,16.1696766 C157.876566,14.6252575 158.529615,13.4460323 159.620806,12.4360076 C159.834024,12.2386633 159.997258,12.1948715 160.234904,12.4013345 C161.33679,13.3586739 162.073595,14.4723803 161.867357,16.0184881 C161.830545,16.2924961 161.816023,16.5694311 161.791256,16.8450152 L161.791256,16.8450152 Z M163.537973,53.5537604 C164.008537,53.5569125 164.476512,53.5511712 164.941223,53.4795733 C166.144652,53.2943871 166.938532,52.5982221 167.165033,51.4831648 C167.349882,50.5729943 167.340313,49.6571951 167.114825,48.7508522 C166.713156,47.135961 165.81368,45.7795425 164.883246,44.4365204 C164.67926,44.1420237 164.505669,44.3173032 164.317781,44.4096149 C161.735419,45.6766487 159.102285,45.7419424 156.414552,44.771319 C156.004553,44.6232826 155.593429,44.1411231 155.216302,44.3453345 C154.84728,44.5450429 154.63654,45.0586109 154.387073,45.453975 C153.397087,47.0232732 152.587558,48.6428926 152.680883,50.5880794 C152.768129,52.4107844 153.60006,53.3569789 155.414322,53.5166106 C155.841207,53.5540981 156.275409,53.5370993 156.704546,53.5128956 C158.06907,53.4357816 159.422787,53.1582837 160.797667,53.2794146 C161.712116,53.3596807 162.62465,53.4615613 163.537973,53.5537604 L163.537973,53.5537604 Z M146.557018,33.2963041 C145.409764,33.2777292 144.336247,33.5670474 143.335904,34.1185533 C142.489901,34.5848398 142.085306,35.3145522 142.087782,36.2838247 C142.090372,37.2874325 142.459731,38.1866832 142.868154,39.0701733 C143.553286,40.5522258 144.117175,42.0657993 144.384542,43.6884582 C144.538995,44.6256467 144.754576,45.559458 145.224578,46.4065863 C145.859502,47.5505755 146.740628,47.9808379 148.02725,47.7599653 C149.134652,47.5699384 150.139723,47.1444042 151.021863,46.4369816 C152.053839,45.6092162 152.883293,44.5987412 153.680438,43.554156 C153.865737,43.3112187 153.803033,43.186598 153.610417,43.0021998 C153.246011,42.6532167 152.878002,42.2995054 152.568195,41.9033533 C150.917843,39.793469 150.247908,37.4028221 150.637869,34.7471732 C150.714082,34.2283141 150.574826,34.0268045 150.085575,33.9037599 C148.923123,33.6115146 147.767201,33.302946 146.557018,33.2963041 L146.557018,33.2963041 Z M177.887821,36.4860097 C177.901667,35.3752302 177.507316,34.6102818 176.643414,34.127109 C175.818126,33.6654382 174.931483,33.3796097 173.981236,33.3151041 C172.536108,33.2169386 171.160439,33.5690738 169.781618,33.9350558 C169.339536,34.0524717 169.222007,34.2521801 169.330755,34.6734365 C169.395598,34.9247043 169.412822,35.1917327 169.425318,35.4529071 C169.566262,38.4150983 168.573349,40.9276641 166.404137,42.9557062 C166.14544,43.1975178 166.099284,43.3515206 166.338393,43.6250784 C166.793985,44.1466392 167.201958,44.7099655 167.662165,45.2270234 C168.729378,46.4263996 169.982002,47.33657 171.583272,47.7072801 C173.152345,48.0707854 174.185898,47.5873876 174.880149,46.1251483 C175.130404,45.5979587 175.311537,45.0448767 175.408915,44.4735576 C175.753845,42.4506939 176.369969,40.5208173 177.270346,38.6746967 C177.623494,37.9511759 177.84887,37.1745196 177.887821,36.4860097 L177.887821,36.4860097 Z M159.133243,25.6551501 C159.081121,25.1334766 159.036654,24.6110151 158.975525,24.0903548 C158.793716,22.5415453 158.231066,21.1592344 157.166554,19.9995973 C156.207076,18.9543366 155.137161,18.7587935 153.872604,19.4067764 C153.079625,19.8130602 152.410928,20.392147 151.77454,21.0005034 C150.683349,22.0440755 149.484986,22.9289165 148.153109,23.6415175 C147.359791,24.065926 146.58336,24.5252328 145.928173,25.1552036 C144.885951,26.1571229 144.716863,27.2524795 145.426538,28.5106199 C145.958343,29.4533246 146.646515,30.2553103 147.566817,30.8530846 C148.59598,31.5214435 149.71993,31.9765851 150.859642,32.4070726 C151.172938,32.5253891 151.272455,32.3814055 151.394374,32.1290119 C152.782989,29.2527156 155.05318,27.4993569 158.175679,26.8456328 C159.142812,26.64311 159.143487,26.6464872 159.133243,25.6551501 L159.133243,25.6551501 Z M160.830539,25.511279 C160.830539,25.754554 160.851704,26.0000805 160.825474,26.2405411 C160.787648,26.5874978 160.906528,26.7312564 161.267219,26.7827032 C164.662374,27.2673394 167.087356,29.0899319 168.583706,32.1592946 C168.718909,32.4366799 168.844205,32.5049005 169.134986,32.3952522 C170.063507,32.0453685 170.980769,31.6748835 171.850976,31.1926114 C173.031214,30.5386621 173.945325,29.6221874 174.579573,28.4340688 C175.231159,27.2134159 175.074454,26.2040667 174.096288,25.2174577 C173.45551,24.5710509 172.682681,24.1046519 171.888801,23.6840709 C170.503225,22.9501932 169.262084,22.0307916 168.130478,20.9492817 C167.711811,20.5490769 167.259146,20.1785919 166.791058,19.8369262 C165.069671,18.5804744 163.742184,18.7880631 162.426405,20.4484346 C161.244141,21.9403937 160.960789,23.6924015 160.830539,25.511279 L160.830539,25.511279 Z" id="path-1"></path>
        <filter x="-50%" y="-50%" width="200%" height="200%" filterUnits="objectBoundingBox" id="filter-2">
            <feOffset dx="0" dy="0" in="SourceAlpha" result="shadowOffsetOuter1"></feOffset>
            <feGaussianBlur stdDeviation="0.5" in="shadowOffsetOuter1" result="shadowBlurOuter1"></feGaussianBlur>
            <feColorMatrix values="0 0 0 0 0   0 0 0 0 0   0 0 0 0 0  0 0 0 0.5 0" type="matrix" in="shadowBlurOuter1"></feColorMatrix>
        </filter>
    </defs>
    <g id="Page-1" stroke="none" stroke-width="1" fill="none" fill-rule="evenodd">
        <g id="desktop-homepage" transform="translate(-158.000000, -917.000000)">
            <g id="welcome" transform="translate(-1.000000, 753.000000)">
                <g id="Group-2" transform="translate(36.000000, 165.000000)">
                    <g id="Shape">
                        <use fill="black" fill-opacity="1" filter="url(#filter-2)" xlink:href="#path-1"></use>
                        <use fill="#4A4A4A" fill-rule="evenodd" xlink:href="#path-1"></use>
                        <use fill="black" fill-opacity="1" xlink:href="#path-1"></use>
                    </g>
                </g>
            </g>
        </g>
    </g>
</svg>

<svg width="74" height="74" viewBox="0 0 74 74" xmlns="http://www.w3.org/2000/svg" xmlns:xlink="http://www.w3.org/1999/xlink"><title>Shape</title><defs><path d="M190.84 44.08c.073.155.194.154.302.175 1.468.286 2.248 1.305 2.79 2.592.129.303.062.485-.21.646-1.218.72-2.466 1.072-3.836.415-.277-.133-.553-.327-.956-.26.695.87 1.232 1.797 1.452 2.865.485 2.346-.048 4.542-1.078 6.64-1.303 2.653-3.235 4.81-5.439 6.739-3 2.625-6.292 4.786-10.076 6.113-2.514.882-5.081 1.264-7.73.61-1.705-.421-3.071-1.323-4.156-2.86 0 .456-.014.783.003 1.108.072 1.377-.752 2.255-1.688 3.078-.246.217-.414.049-.582-.095-1.024-.882-1.75-1.904-1.57-3.354.024-.201.003-.409.003-.696-.262.306-.476.572-.707.824-1.54 1.682-3.548 2.225-5.727 2.307-2.289.086-4.468-.446-6.552-1.34-5.146-2.209-9.516-5.448-12.899-9.94-1.498-1.988-2.517-4.197-2.748-6.725-.165-1.794.236-3.419 1.298-4.878.082-.112.235-.199.177-.413-.454.03-.833.286-1.244.434-1.323.478-2.453.004-3.555-.668-.256-.156-.155-.35-.079-.535.519-1.27 1.278-2.29 2.72-2.594.124-.026.268-.015.35-.146-3.728-1.805-4.955-5.147-5.085-8.902-.239-6.938 1.866-13.221 5.97-18.808 1.398-1.902 3.203-3.354 5.458-4.184 1.672-.615 3.334-.581 5.047.001l-.534-.634-.54-.648c-.915-1.103-.825-2.348-.524-3.628.076-.32.297-.282.521-.266 1.492.106 2.722.651 3.437 2.059.082.162.188.312.356.589.067-.524.094-.92.17-1.306.45-2.261 1.884-3.831 3.678-5.12 2.129-1.528 4.563-2.327 7.114-2.759 4.504-.763 9-.72 13.447.404 2.558.646 4.91 1.72 6.805 3.633 1.294 1.306 2.176 2.807 2.267 4.694.005.107.041.212.08.403.231-.356.43-.644.61-.943.756-1.258 1.991-1.55 3.32-1.665.28-.024.344.153.394.367.327 1.376.298 2.678-.741 3.79-.306.327-.586.678-.94 1.092.716-.16 1.316-.402 1.96-.468 2.097-.216 3.904.524 5.576 1.68 2.096 1.45 3.643 3.401 4.857 5.604 2.722 4.94 4.325 10.19 4.186 15.887a12.707 12.707 0 0 1-.7 3.913c-.807 2.3-2.062 4.233-4.452 5.173zm-48.715-15.832l-.044.073.044.022-.012-.09c-1.321-2.324-1.19-4.61.175-6.867.607-1.003 1.385-1.861 2.243-2.652.157-.144.372-.247.165-.541-1.163-1.653-2.577-2.982-4.587-3.507-2.313-.604-4.916.347-5.39 3.35-.199 1.262-.275 2.533-.389 3.8-.259 2.895-.91 5.685-2.103 8.344-.885 1.973-2.113 3.75-3.178 5.62-.399.7-.766 1.423-.816 2.25-.103 1.737.894 3.269 2.643 4.063 1.866.846 3.758.692 5.654.117.838-.254.827-.265.659-1.14-.292-1.522-.393-3.05-.018-4.572.535-2.173 1.885-3.647 3.964-4.478-.198-.158-.41-.169-.61-.201-1.57-.254-2.501-1.232-3.072-2.65-.134-.333-.067-.509.226-.68 1.203-.701 2.433-1.053 3.787-.412.194.092.4.294.66.151zm35.753.011c.245.11.432-.07.616-.158 1.374-.647 2.624-.298 3.831.442.173.106.364.192.248.475-.505 1.235-1.156 2.321-2.583 2.66-.2.047-.394.12-.593.171-.18.047-.386.025-.536.208 2.313.936 3.662 2.635 4.048 5.07.235 1.478.103 2.954-.226 4.41-.06.265-.05.403.233.508 1.764.654 3.56.905 5.395.367 2.356-.69 4.65-3.092 2.717-6.421a61.277 61.277 0 0 0-1.273-2.12c-1.784-2.806-3.096-5.804-3.719-9.088-.396-2.086-.46-4.207-.714-6.309-.353-2.929-2.514-4.49-5.36-3.811-2.065.492-3.513 1.842-4.692 3.536-.177.254-.033.364.128.504.512.442.974.933 1.403 1.456 1.195 1.457 2.001 3.068 1.972 5.011-.017 1.114-.425 2.112-.881 3.099l-.07.065c.018.003.04.014.054.008.05-.023.05-.053.002-.083zm-8.041 24.822c-.03.103-.05.148-.056.195-.306 2.714-1.826 4.476-4.308 5.478-1.05.424-2.152.638-3.27.774-.218.027-.395.044-.41.337-.114 2.282.26 4.429 1.86 6.174 1.478 1.611 4.01 2.398 6.127.178a30.214 30.214 0 0 0 1.715-1.936c2.85-3.554 6.352-6.23 10.576-7.955 1.125-.46 2.267-.89 3.328-1.494 2.05-1.168 2.743-3.164 1.78-5.323-1.04-2.332-3.048-3.455-5.384-4.124-.24-.068-.37.01-.473.247-.285.653-.622 1.28-1.018 1.874-1.083 1.624-2.442 2.884-4.412 3.337-.996.23-1.99.16-3.091-.085.21.25.33.415.47.56 1.028 1.07 1.152 2.337.852 3.716-.082.377-.224.537-.634.499-1.353-.125-2.523-.55-3.238-1.809-.117-.206-.257-.4-.414-.643zm-22.74-2.254c-.055-.02-.074-.033-.09-.03-.092.014-.184.03-.275.048-2.025.4-3.827-.065-5.398-1.404-1.044-.89-1.797-2.001-2.407-3.218-.48-.96-.49-.987-1.522-.607-2.07.762-3.835 1.904-4.689 4.065-.825 2.087-.159 3.978 1.766 5.108.81.475 1.679.828 2.548 1.175 3.519 1.402 6.728 3.28 9.388 6.023 1.229 1.266 2.298 2.672 3.496 3.965 1.99 2.148 4.454 2.187 6.437.028 1.588-1.728 1.937-3.868 1.82-6.128-.015-.3-.217-.3-.422-.326-1.08-.135-2.145-.34-3.164-.738-2.114-.825-3.63-2.214-4.213-4.474-.099-.384-.152-.778-.23-1.183-.046.034-.065.04-.074.054-.123.188-.252.372-.366.566-.743 1.264-1.93 1.7-3.31 1.773-.196.01-.411.054-.482-.245-.294-1.26-.398-2.487.488-3.583.231-.286.46-.573.698-.87zm14.694-33.982l.124.052c.041-.06.076-.128.125-.182 1.532-1.703 3.43-2.392 5.703-2.091 1.494.198 2.837.79 4.135 1.514.19.107.352.275.56-.005 1.339-1.804 2.206-3.763 1.821-6.064-.344-2.055-1.945-4.058-4.919-3.453a43.55 43.55 0 0 0-2.46.56c-3.39.898-6.815 1.204-10.3.716-1.839-.258-3.619-.778-5.424-1.185-2.67-.603-4.578.343-5.287 2.733-.76 2.562.206 4.73 1.71 6.743.189.251.33.054.47-.026.698-.402 1.42-.76 2.177-1.032 1.855-.666 3.715-.862 5.579-.023.918.414 1.652 1.07 2.324 1.824.027-.057.04-.072.04-.086-.018-.224-.026-.449-.06-.67-.232-1.545.42-2.724 1.512-3.734.213-.197.376-.241.614-.035 1.102.958 1.839 2.071 1.632 3.617-.036.274-.051.551-.076.827zm1.747 36.709c.47.003.939-.003 1.403-.074 1.204-.186 1.998-.882 2.224-1.997a6.144 6.144 0 0 0-.05-2.732c-.402-1.615-1.301-2.971-2.232-4.314-.204-.295-.377-.12-.565-.027-2.583 1.267-5.216 1.332-7.903.361-.41-.148-.822-.63-1.199-.426-.369.2-.58.714-.829 1.109-.99 1.57-1.8 3.189-1.706 5.134.087 1.823.92 2.769 2.733 2.929.427.037.861.02 1.29-.004 1.365-.077 2.719-.355 4.094-.234.914.08 1.827.183 2.74.275zm-16.981-20.258c-1.147-.018-2.22.271-3.221.823-.846.466-1.25 1.196-1.248 2.165.002 1.003.372 1.903.78 2.786.685 1.482 1.25 2.996 1.517 4.618.154.938.37 1.871.84 2.719.635 1.144 1.516 1.574 2.802 1.353 1.108-.19 2.113-.616 2.995-1.323 1.032-.828 1.861-1.838 2.658-2.883.186-.243.123-.367-.07-.552-.364-.349-.732-.702-1.042-1.099-1.65-2.11-2.32-4.5-1.93-7.156.076-.519-.063-.72-.552-.843-1.163-.292-2.319-.601-3.529-.608zm31.33 3.19c.015-1.11-.38-1.876-1.244-2.359a6.28 6.28 0 0 0-2.662-.812c-1.445-.098-2.82.254-4.2.62-.441.117-.559.317-.45.738.065.252.082.519.094.78.141 2.962-.852 5.475-3.02 7.503-.26.242-.306.396-.067.67.456.52.864 1.084 1.324 1.601 1.067 1.2 2.32 2.11 3.921 2.48 1.57.364 2.603-.12 3.297-1.582.25-.527.432-1.08.529-1.651a21.32 21.32 0 0 1 1.861-5.8c.353-.723.579-1.5.618-2.188zm-18.754-10.83c-.052-.523-.096-1.045-.157-1.566-.182-1.548-.745-2.93-1.81-4.09-.959-1.046-2.029-1.241-3.293-.593-.793.406-1.462.985-2.098 1.594a16.44 16.44 0 0 1-3.622 2.64c-.793.425-1.57.884-2.225 1.514-1.042 1.002-1.211 2.097-.501 3.356.531.942 1.22 1.744 2.14 2.342 1.029.668 2.153 1.124 3.293 1.554.313.118.412-.026.534-.278 1.389-2.876 3.66-4.63 6.782-5.283.967-.203.967-.2.957-1.19zm1.698-.145c0 .244.02.49-.006.73-.037.346.082.49.442.542 3.395.484 5.82 2.307 7.317 5.376.135.278.26.346.551.236.929-.35 1.846-.72 2.716-1.202a6.713 6.713 0 0 0 2.729-2.759c.651-1.22.494-2.23-.484-3.217-.64-.646-1.413-1.112-2.207-1.533a16.808 16.808 0 0 1-3.759-2.735c-.418-.4-.87-.77-1.339-1.112-1.721-1.257-3.049-1.049-4.365.611-1.182 1.492-1.465 3.244-1.595 5.063z" id="b"/><filter x="-50%" y="-50%" width="200%" height="200%" filterUnits="objectBoundingBox" id="a"><feOffset in="SourceAlpha" result="shadowOffsetOuter1"/><feGaussianBlur stdDeviation=".5" in="shadowOffsetOuter1" result="shadowBlurOuter1"/><feColorMatrix values="0 0 0 0 0 0 0 0 0 0 0 0 0 0 0 0 0 0 0.5 0" in="shadowBlurOuter1"/></filter></defs><g transform="translate(-123 1)" fill="none" fill-rule="evenodd"><use fill="#4A4A4A" filter="url(#a)" xlink:href="#b"/><use fill="#4A4A4A" xlink:href="#b"/><use fill="#4A4A4A" xlink:href="#b"/></g></svg>
